!!!OTL: HERR ZACHAEUS WAR EIN KREUZFIDELES HAUS
!!!ARE: Europa, Mitteleuropa, Deutschland
!!!SCT: F0512
!!!YEM: Copyright 1995, estate of Helmut Schaffrath.
**kern
*ICvox
*Ivox
*M3/4
*k[f#]
*G:
{8.g
16g
=1
4g
4d
8.b
16b
=2
4b
4g}
{8.b
16cc
=3
4.dd
8ee
8.dd
16cc
=4
4cc
4b
8.r}
{16dd
=5
8.dd
16dd
4.dd
8ee
=6
8.dd
16cc
2cc}
=7
{8b
8g
4.dd
8b
=8
8.b
16a
2a}
=9
{8.b
16cc
4.dd
8b
=10
4a
4g
4r}
=11
{4.g
8a
8b
8cc
=12
8dd
8d
4g
4r}
=13
{4.g
8a
8b
8cc
=14
8dd
8d
4g
4r}
=15
{8.dd
16cc
4b
4dd
=16
8ee
8dd
4cc
4cc}
=17
{8.cc
16b
4a
4cc
=18
8dd
8cc
4b
4b}
=19
{8g
8g
8a
8a
8b
8b
=20
8cc
8cc#
4.dd
8dd
=21
4g
8r}
{8.g
16a
16b
16cc
=22
8dd
8b
8a
4b
8r}
=23
{8dd
8dd
8dd
8ee
8ee
8ee}
=24
{8cc
8cc
8cc
8dd
8dd
8dd}
=25
{8.g
16a
16b
16cc
8dd
8b
8a
=26
8g
16b
16b
16b
16b
4.b
=27
2r}
==
!!!AGN: Studenten -, Trink - Lied
!!!ONB: ESAC (Essen Associative Code) Database: FINK
!!!AMT: simple triple
!!!AIN: vox
!!!EED: Helmut Schaffrath
!!!EEV: 1.0
*-
